Gruvbox-Plus-Dark/actions/16/mail-open-multiple.svg

<svg width="16" height="16" version="1.1" viewBox="0 0 16 16" xmlns="http://www.w3.org/2000/svg">
  <defs>
    <style type="text/css">.ColorScheme-Text { color:#ebdbb2; } .ColorScheme-Highlight { color:#458588; }</style>
  </defs>
  <path class="ColorScheme-Text" d="m3 1v2h10v-2zm-1 2c-1.108 0-2 0.892-2 2v8c0 1.108 0.892 2 2 2h6v-5l-6-3zm12 0v4l-2 1h3c0.364 0 0.7035 0.1077 1 0.2832v-3.283c0-1.108-0.892-2-2-2zm-11 2v2h10v-2zm7 4c-0.554 0-1 0.446-1 1v5c0 0.554 0.446 1 1 1h5c0.554 0 1-0.446 1-1v-5c0-0.554-0.446-1-1-1zm0 1h1l1.377 1.586 1.623-1.586h1v5h-1v-3.613l-1.682 1.613c-0.4395-0.4775-0.8786-0.9918-1.318-1.496v3.496h-1z" fill="currentColor"/>
</svg>

<svg xmlns="http://www.w3.org/2000/svg" width="16" height="16" version="1.1" viewBox="0 0 16 16">
 <defs>
  <style id="current-color-scheme" type="text/css">
   .ColorScheme-Text { color:#ebdbb2; } .ColorScheme-Highlight { color:#458588; }
  </style>
 </defs>
 <path style="fill:currentColor" class="ColorScheme-Text" d="M 3 1 L 3 3 L 13 3 L 13 1 L 3 1 z M 2 3 C 0.892 3 0 3.892 0 5 L 0 13 C 0 14.108 0.892 15 2 15 L 8 15 L 8 10 L 2 7 L 2 3 z M 14 3 L 14 7 L 12 8 L 15 8 C 15.363969 8 15.703481 8.1077387 16 8.2832031 L 16 5 C 16 3.892 15.108 3 14 3 z M 3 5 L 3 7 L 13 7 L 13 5 L 3 5 z M 10 9 C 9.446 9 9 9.446 9 10 L 9 15 C 9 15.554 9.446 16 10 16 L 15 16 C 15.554 16 16 15.554 16 15 L 16 10 C 16 9.446 15.554 9 15 9 L 10 9 z M 10 10 L 11 10 L 11 11 L 12 11 L 12 12 L 13 12 L 13 11 L 14 11 L 14 10 L 15 10 L 15 15 L 14 15 L 14 12 L 13 12 L 13 13 L 12 13 L 12 12 L 11 12 L 11 15 L 10 15 L 10 10 z"/>
</svg>
